img/icon-arr5.svg

<svg width="75" height="124" viewBox="0 0 75 124" fill="none" xmlns="http://www.w3.org/2000/svg">
<path d="M12.2439 92.9256C11.9962 92.0346 11.7632 91.3135 11.4973 90.605C11.1777 89.7533 10.7019 89.5545 9.83206 89.9073C7.78744 90.7366 6.55247 92.307 5.95377 94.3718C5.52769 95.8411 5.19724 97.3422 4.91345 98.8459C4.82792 99.2984 5.04226 99.8077 5.11897 100.291C5.58756 100.154 6.10591 100.103 6.51696 99.8658C9.35803 98.2278 12.407 97.5236 15.6591 97.8522C17.402 98.0285 18.7676 99.5685 18.8749 101.541C18.996 103.759 18.092 105.583 16.3223 106.959C16.0048 107.206 15.7571 107.545 15.4344 107.784C13.2819 109.378 10.8177 109.941 8.20781 109.706C7.39271 109.633 6.53847 109.172 5.85607 108.676C5.16381 108.173 4.78464 108.382 4.55345 108.984C3.66526 111.296 3.02614 113.632 3.71684 116.159C4.00867 117.227 4.17195 118.369 4.1507 119.473C4.12893 120.599 4.66697 121.118 5.57175 121.508C5.83896 121.623 6.18703 121.824 6.25831 122.058C6.37182 122.431 6.35472 122.882 6.26271 123.268C6.15075 123.738 4.86265 124.053 4.33393 123.79C3.40116 123.325 2.76048 122.698 2.39557 121.623C1.83808 119.98 1.49856 118.329 1.37494 116.61C1.32336 115.894 1.10877 115.191 1.04319 114.474C0.819786 112.026 1.4628 109.711 2.15142 107.4C2.32455 106.819 2.5941 106.085 2.38805 105.609C1.84897 104.362 2.21803 103.111 2.0887 101.875C2.07056 101.702 2.0138 101.472 2.097 101.357C3.44471 99.5053 2.60731 97.2994 3.05335 95.2789C3.63416 92.6496 4.50032 90.4126 6.89043 88.996C7.6848 88.5251 8.45922 87.987 9.31034 87.6519C10.6555 87.1219 11.1852 86.1083 11.1735 84.7924C11.1627 83.5253 11.6906 82.4342 12.1364 81.3255C12.3479 80.8004 12.7973 80.2776 13.277 79.9708C15.1602 78.7666 17.0516 77.5581 19.039 76.5455C19.8077 76.1542 20.0754 75.5959 20.2809 74.9521C20.6946 73.6565 20.9854 72.322 21.362 71.0137C21.4496 70.7089 21.631 70.4 21.8497 70.1696C23.0964 68.8568 24.4599 67.6421 25.5917 66.2389C26.1691 65.5231 26.8733 65.1854 27.5793 64.7212C28.6886 63.9919 28.6139 62.598 29.0454 61.4927C29.6592 59.9205 29.4223 58.098 30.4421 56.6352C30.6285 56.3677 30.7158 56.0036 30.9499 55.8014C32.7496 54.2474 34.5177 52.647 36.4151 51.22C37.373 50.4998 38.0033 49.821 37.8227 48.5604C37.6306 47.2207 38.5932 46.1879 38.8676 44.9654C39.2437 43.2914 40.1288 41.8726 40.9644 40.3904C41.6802 39.1202 42.4015 38.049 43.6979 37.3666C43.9252 37.2469 44.0999 36.8016 44.0978 36.5082C44.0882 35.0942 44.4842 33.7636 44.8116 32.4133C45.0705 31.3455 45.4813 30.3736 46.0343 29.4079C47.2426 27.2982 48.6098 25.3666 50.3372 23.6231C51.0538 22.8998 51.0903 21.5163 51.4791 20.4485C52.0521 18.8756 52.0477 17.0652 53.3677 15.7966C54.3354 12.6839 57.3136 11.4743 59.3919 9.41258C60.0969 8.71332 60.7757 7.98608 61.5045 7.31326C61.9873 6.86748 62.2942 6.12028 63.1865 6.25687C63.2795 6.27112 63.9977 5.98059 63.4317 5.42362C63.1067 5.10406 62.9862 4.56964 62.7946 4.12257C62.6454 3.77398 62.5933 3.33493 62.0329 3.48681C61.9785 3.50158 61.9147 3.49873 61.8588 3.48733C60.9954 3.31265 59.795 2.4527 60.0064 2.18368C60.5367 1.50827 61.195 0.930832 61.8297 0.34432C61.9243 0.256978 62.169 0.338099 62.3439 0.331361C65.3892 0.21551 68.4338 0.0742598 71.4801 0.000913386C72.1291 -0.0146371 72.7957 0.171191 73.433 0.343283C74.2312 0.558916 74.6151 1.08867 74.6034 1.96883C74.5759 4.05103 74.1364 6.00417 73.2132 7.88682C72.6215 9.09301 72.2527 10.4091 71.7908 11.6785C71.6613 12.0344 71.6125 12.4322 71.427 12.7533C70.9944 13.5024 69.9427 13.5459 69.4158 12.8586C68.2948 11.3968 67.1905 9.92263 66.0675 8.46296C65.7075 7.99515 65.2184 7.77382 64.7597 8.26418C62.6124 10.5586 59.7369 11.9714 57.6106 14.3107C55.92 16.1706 55.1039 18.3919 54.4285 20.7154C54.3899 20.8484 54.5327 21.0648 54.6452 21.1962C54.6918 21.2509 54.9318 21.2335 54.9958 21.1656C55.6743 20.4436 56.4897 20.1675 57.4686 19.9128C59.9282 19.2721 61.9645 20.3705 64.0293 21.2281C64.9054 21.592 65.3431 22.6196 65.5823 23.7014C65.9607 25.4127 66.0263 27.1054 65.6085 28.7592C64.8867 31.6145 62.6759 32.9075 60.0412 33.6514C59.7273 33.74 59.4142 33.833 59.0967 33.9074C58.4032 34.0699 58.3174 34.2783 58.8103 34.8954C60.353 36.8275 60.3011 39.2228 58.8332 41.2019C58.4115 41.7703 58.1251 42.4392 57.7031 43.0073C56.4918 44.6385 54.5669 45.0081 52.806 45.5374C51.0299 46.0713 49.1888 46.1117 47.3165 45.6268C46.4073 45.3912 45.8034 44.8798 45.5699 44.1982C45.2195 43.176 44.5031 42.2005 44.7981 40.9943C44.845 40.802 44.6216 40.5436 44.5231 40.3158C44.2712 40.4485 43.9127 40.5156 43.7844 40.7245C42.6713 42.5343 41.7686 44.4416 41.3205 46.5365C41.2847 46.7042 41.3508 46.8949 41.3104 47.0603C40.8944 48.761 40.8861 48.7364 42.6127 48.3927C43.4869 48.2185 44.379 48.1198 45.268 48.0381C46.7935 47.8982 48.3208 47.7393 49.8507 47.6965C51.6525 47.646 53.4084 49.2568 53.5667 51.0738C53.8243 54.029 52.9903 56.6329 50.7977 58.6806C49.4935 59.8985 47.8517 60.7133 46.123 60.8533C44.6947 60.9689 43.208 60.4977 41.765 60.2007C41.3663 60.1185 40.9789 59.7811 40.6754 59.4732C39.3264 58.1042 38.3104 56.5551 38.1505 54.5595C38.1256 54.2498 37.9743 53.9237 37.7967 53.663C37.6887 53.5044 37.3134 53.3201 37.2364 53.3795C34.9603 55.1317 32.6565 56.8736 32.2069 60.0174C32.1047 60.7309 31.9376 61.4369 31.8689 62.153C31.7958 62.9168 32.0902 62.8463 32.6537 62.5177C34.3948 61.502 36.3259 61.1109 38.2959 61.3939C39.8935 61.6233 41.3904 62.0393 42.4624 63.621C43.2013 64.7111 43.6243 65.748 43.3687 66.9143C43.1671 67.8357 42.6604 68.7656 42.0633 69.51C40.4375 71.5362 38.2228 72.5348 35.6461 72.554C34.5185 72.5635 33.3917 72.4877 32.2755 72.3272C29.8839 71.982 29.2411 70.3945 28.7137 68.521C28.6528 68.3051 28.7863 67.9775 28.6689 67.8463C28.4019 67.5485 28.1746 66.9771 27.5871 67.5511C25.7314 69.3638 24.4132 71.5214 23.4696 73.9133C23.2653 74.4309 23.4963 74.8142 24.1763 74.6911C25.5367 74.4452 26.906 74.2466 28.262 73.9792C29.9077 73.6547 32.1934 74.8966 32.7921 76.504C33.0619 77.2287 32.8579 77.8899 32.5803 78.5979C31.9482 80.2105 31.2894 81.7803 29.7494 82.7517C26.7209 84.6621 22.8429 83.4377 21.3417 80.216C20.3807 78.1534 19.7652 78.7731 18.4019 79.5685C17.9802 79.8168 17.5554 80.0601 17.1278 80.2981C15.1996 81.3625 14.1082 82.9456 13.9786 85.1895C13.9384 85.8815 14.295 86.1313 14.7662 85.8862C16.5172 84.9757 18.1764 86.0059 19.8748 86.0445C20.905 86.0681 21.942 86.3586 22.9512 86.624C24.8473 87.1222 25.3825 89.1061 24.2292 90.6158C23.2151 91.9436 22.0516 93.1057 20.8783 94.2699C18.8283 96.3042 15.4375 96.2715 13.3566 94.2145C12.9834 93.8457 12.6146 93.4722 12.2439 92.9256ZM40.6153 53.4681C40.8488 54.1863 41.0193 54.9324 41.3272 55.6169C42.3922 57.9855 44.1693 58.5741 46.7237 57.9381C48.6541 57.4576 49.3253 55.8942 50.4546 54.6587C51.1191 53.9315 51.1567 53.0521 51.4257 52.2554C51.7673 51.2439 50.1565 49.5294 49.2315 49.7995C47.09 50.4244 44.8896 50.6291 42.6874 50.8339C40.8962 51.0005 40.6272 51.2802 40.6153 53.4681ZM61.2808 29.969C62.5632 29.2418 63.1171 27.9977 63.3545 26.6669C63.6595 24.9571 62.9952 23.0698 62.0078 22.7808C60.5479 22.3537 59.1955 21.7825 57.5241 22.3498C56.2875 22.7697 55.3558 23.5816 54.2263 24.1044C53.3698 24.5012 53.4576 25.4021 53.68 26.2138C53.7513 26.4743 53.8757 26.7236 53.9202 26.9875C54.3489 29.5253 56.5024 31.2986 58.9467 30.8315C59.6832 30.6908 60.3869 30.3782 61.2808 29.969ZM51.6486 43.1216C52.3066 42.8878 52.9501 42.5918 53.6258 42.433C55.0399 42.101 56.0561 41.3475 56.8194 40.0802C58.1863 37.8101 57.2545 35.335 54.8032 35.0623C51.9238 34.7422 49.4306 35.6454 47.3465 37.6393C47.1001 37.8749 46.9357 38.3279 46.9469 38.6731C46.9663 39.2674 47.1887 39.8518 47.2633 40.4482C47.4585 42.0025 48.1611 43.062 49.416 43.3033C50.0101 43.4173 50.6689 43.1926 51.6486 43.1216ZM11.018 100.642C8.35917 100.953 6.61545 102.412 5.71507 104.908C5.57616 105.293 5.35612 105.57 6.01053 105.959C7.00239 106.549 7.95383 106.891 9.10093 106.985C10.6324 107.11 11.8915 106.451 13.212 105.904C15.6111 104.91 16.3034 103.888 16.4467 101.508C16.4905 100.785 16.263 100.436 15.4419 100.25C13.9744 99.9194 12.5959 100.154 11.018 100.642ZM31.1582 67.4975C31.4065 68.7483 31.8839 69.8368 33.3296 70.0099C34.7139 70.1755 36.1266 70.4127 37.4305 69.6323C38.3151 69.1028 39.295 68.6731 40.0422 67.9902C40.7218 67.3694 41.1263 66.4914 40.9843 65.4383C40.8553 64.482 40.0852 64.4351 39.4596 64.1746C39.0607 64.0067 38.6426 63.8886 38.2148 63.8229C36.5644 63.579 34.9419 63.9216 33.4828 64.5719C32.4435 65.0348 30.8426 65.3212 31.1582 67.4975ZM21.5258 88.3659C19.6605 88.2491 17.7965 88.0824 15.9294 88.0298C14.1476 87.9793 13.8563 88.3063 14.0022 90.0441C14.2176 92.6084 16.397 93.9333 18.6608 92.8245C20.0365 92.1507 20.9367 90.4909 22.0104 89.2396C22.0814 89.1567 21.8121 88.7809 21.5258 88.3659ZM67.7607 2.7873L65.8342 3.05425C66.1419 3.68223 66.45 4.31021 66.7564 4.93922C66.8033 5.03564 66.8243 5.14993 66.8878 5.23235C67.9074 6.55518 68.9187 7.885 69.9764 9.17647C70.0811 9.30424 70.6953 9.23867 70.7065 9.1858C71.1012 7.30523 71.8004 5.48245 71.795 3.52335C71.7932 2.84173 71.5757 2.40372 70.8246 2.43975C69.8613 2.48562 68.8987 2.55352 67.7607 2.7873ZM48.4962 34.0025C48.8176 33.7978 49.1307 33.4331 49.4614 33.4165C50.7111 33.3536 51.8069 32.1064 53.178 32.929C53.2674 32.9829 53.6416 32.7694 53.6976 32.6134C53.7544 32.4545 53.6393 32.1544 53.4999 32.017C52.5648 31.0959 51.6258 30.2139 51.7973 28.6962C51.8414 28.3059 51.6071 27.8557 51.4182 27.4742C51.0932 26.818 50.5147 26.8164 50.0751 27.4519C49.5462 28.2167 48.9034 28.9396 48.5525 29.7819C48.016 31.0692 47.6622 32.4363 47.2916 33.7864C47.2182 34.0533 47.4199 34.3962 47.4945 34.7039C47.8409 34.4884 48.1753 34.2543 48.4962 34.0025ZM24.328 79.9485C24.7315 80.2356 25.105 80.6952 25.545 80.7721C26.3425 80.9118 27.4435 81.157 27.9442 80.7597C28.9151 79.9889 29.633 78.8511 30.31 77.7735C30.7674 77.0457 30.3569 76.4115 29.4599 76.4675C28.0227 76.5572 26.5727 76.7176 25.1755 77.048C24.4866 77.2111 23.2967 76.6852 23.1777 77.7769C23.1098 78.3991 23.8026 79.1049 24.328 79.9485ZM63.7326 3.66409C63.9835 3.72266 64.232 3.7973 64.486 3.83022C64.5682 3.84084 64.6643 3.7421 64.7543 3.69337C64.6371 3.62521 64.527 3.52439 64.4007 3.49692C64.2434 3.46271 64.0726 3.48888 63.7326 3.66409ZM39.9147 62.9381L39.7045 62.7976C39.7162 62.9028 39.7278 63.0081 39.9147 62.9381Z" fill="white"/>
</svg>

<svg width="75" height="124" fill="none" xmlns="http://www.w3.org/2000/svg"><path d="M12.244 92.926a26.995 26.995 0 0 0-.747-2.321c-.32-.852-.795-1.05-1.665-.698-2.045.83-3.28 2.4-3.878 4.465-.426 1.47-.757 2.97-1.04 4.474-.086.452.128.962.205 1.445.469-.137.987-.188 1.398-.425 2.841-1.638 5.89-2.342 9.142-2.014 1.743.176 3.109 1.716 3.216 3.689.121 2.218-.783 4.042-2.553 5.418-.317.247-.565.586-.888.825-2.152 1.594-4.616 2.157-7.226 1.922-.815-.073-1.67-.534-2.352-1.03-.692-.503-1.071-.294-1.303.308-.888 2.312-1.527 4.648-.836 7.175.292 1.068.455 2.21.434 3.314-.022 1.126.516 1.645 1.42 2.035.268.115.616.316.687.55.114.373.097.824.005 1.21-.112.47-1.4.785-1.93.522-.932-.465-1.573-1.092-1.937-2.167a19.896 19.896 0 0 1-1.021-5.013c-.052-.716-.266-1.419-.332-2.136-.223-2.448.42-4.763 1.108-7.074.174-.581.443-1.315.237-1.791-.539-1.247-.17-2.498-.3-3.734-.017-.173-.074-.403.009-.518 1.348-1.852.51-4.058.956-6.078.581-2.63 1.447-4.866 3.837-6.283.795-.47 1.57-1.009 2.42-1.344 1.345-.53 1.875-1.544 1.864-2.86-.011-1.267.517-2.358.962-3.466.212-.526.661-1.048 1.141-1.355 1.883-1.204 3.775-2.413 5.762-3.425.769-.392 1.036-.95 1.242-1.594.414-1.296.704-2.63 1.081-3.938a2.13 2.13 0 0 1 .488-.844c1.246-1.313 2.61-2.528 3.742-3.931.577-.716 1.281-1.054 1.987-1.518 1.11-.73 1.035-2.123 1.466-3.228.614-1.573.377-3.395 1.397-4.858.186-.267.274-.631.508-.834 1.8-1.554 3.568-3.154 5.465-4.581.958-.72 1.588-1.399 1.408-2.66-.192-1.34.77-2.372 1.045-3.595.376-1.674 1.26-3.092 2.096-4.575.716-1.27 1.438-2.341 2.734-3.023.227-.12.402-.565.4-.859-.01-1.414.386-2.744.714-4.095.259-1.067.67-2.04 1.222-3.005 1.209-2.11 2.576-4.041 4.303-5.785.717-.723.753-2.107 1.142-3.175.573-1.572.569-3.383 1.889-4.651.967-3.113 3.946-4.323 6.024-6.384.705-.7 1.384-1.427 2.112-2.1.483-.446.79-1.193 1.683-1.056.093.014.81-.276.245-.833-.325-.32-.446-.854-.637-1.301-.15-.349-.202-.788-.762-.636a.39.39 0 0 1-.174 0c-.864-.174-2.064-1.034-1.853-1.303.53-.676 1.189-1.253 1.824-1.84.094-.087.339-.006.514-.013 3.045-.115 6.09-.257 9.136-.33.65-.016 1.316.17 1.953.342.798.216 1.182.746 1.17 1.626-.027 2.082-.467 4.035-1.39 5.918-.591 1.206-.96 2.522-1.422 3.792-.13.355-.178.753-.364 1.074-.433.75-1.484.793-2.011.106-1.121-1.462-2.225-2.936-3.349-4.396-.36-.468-.849-.69-1.307-.199-2.148 2.295-5.023 3.707-7.15 6.047-1.69 1.86-2.506 4.08-3.181 6.404-.04.133.104.35.216.481.047.055.287.037.35-.03.68-.722 1.495-.998 2.474-1.253 2.46-.64 4.495.457 6.56 1.315.876.364 1.314 1.392 1.553 2.473.379 1.712.444 3.404.027 5.058-.722 2.855-2.933 4.148-5.568 4.892-.314.089-.627.182-.944.256-.694.163-.78.371-.287.988 1.543 1.932 1.491 4.328.023 6.307-.422.568-.708 1.237-1.13 1.805-1.211 1.632-3.136 2.001-4.897 2.53-1.776.534-3.617.575-5.49.09-.909-.236-1.513-.747-1.746-1.429-.35-1.022-1.067-1.998-.772-3.204.047-.192-.176-.45-.275-.678-.252.133-.61.2-.739.408-1.113 1.81-2.015 3.718-2.463 5.813-.036.167.03.358-.01.523-.417 1.701-.425 1.676 1.302 1.333.874-.175 1.766-.273 2.655-.355 1.526-.14 3.053-.299 4.583-.341 1.802-.051 3.557 1.56 3.716 3.377.257 2.955-.577 5.559-2.77 7.607-1.303 1.218-2.945 2.032-4.674 2.172-1.428.116-2.915-.355-4.358-.652-.399-.083-.786-.42-1.09-.728-1.349-1.369-2.365-2.918-2.524-4.913-.025-.31-.177-.636-.354-.897-.108-.159-.484-.343-.56-.283-2.277 1.752-4.58 3.494-5.03 6.637-.102.714-.27 1.42-.338 2.136-.073.764.221.693.785.365 1.74-1.016 3.672-1.407 5.642-1.124 1.598.23 3.094.645 4.166 2.227.74 1.09 1.162 2.127.907 3.293-.202.922-.709 1.852-1.306 2.596-1.626 2.026-3.84 3.025-6.417 3.044a22.359 22.359 0 0 1-3.37-.227c-2.392-.345-3.035-1.933-3.562-3.806-.061-.216.072-.543-.045-.675-.267-.297-.494-.869-1.082-.295-1.856 1.813-3.174 3.97-4.117 6.362-.205.518.026.901.706.778 1.36-.246 2.73-.444 4.086-.712 1.646-.324 3.931.918 4.53 2.525.27.725.066 1.386-.212 2.094-.632 1.612-1.29 3.182-2.83 4.154-3.03 1.91-6.907.686-8.408-2.536-.961-2.063-1.577-1.443-2.94-.647-.422.248-.847.491-1.274.73-1.928 1.063-3.02 2.647-3.15 4.89-.04.693.317.942.788.697 1.751-.91 3.41.12 5.109.159 1.03.023 2.067.314 3.076.579 1.896.498 2.431 2.482 1.278 3.992-1.014 1.328-2.177 2.49-3.35 3.654-2.05 2.034-5.442 2.002-7.522-.055-.374-.37-.742-.743-1.113-1.29Zm28.371-39.458c.234.718.404 1.464.712 2.149 1.065 2.369 2.842 2.957 5.397 2.321 1.93-.48 2.601-2.044 3.73-3.28.665-.727.703-1.606.972-2.403.341-1.011-1.27-2.726-2.195-2.456-2.141.625-4.341.83-6.544 1.035-1.79.166-2.06.446-2.072 2.634ZM61.281 29.97c1.282-.727 1.836-1.971 2.074-3.302.305-1.71-.36-3.597-1.347-3.886-1.46-.427-2.813-.998-4.484-.431-1.236.42-2.168 1.232-3.298 1.754-.856.397-.768 1.298-.546 2.11.071.26.196.51.24.774.429 2.537 2.582 4.31 5.027 3.843.736-.14 1.44-.453 2.334-.862Zm-9.632 13.153c.658-.234 1.301-.53 1.977-.689 1.414-.332 2.43-1.086 3.193-2.353 1.367-2.27.435-4.745-2.016-5.018-2.88-.32-5.372.583-7.456 2.577-.247.236-.411.689-.4 1.034.02.594.242 1.179.316 1.775.196 1.554.898 2.614 2.153 2.855.594.114 1.253-.11 2.233-.181Zm-40.631 57.52c-2.659.311-4.403 1.77-5.303 4.266-.139.385-.359.662.296 1.051.991.59 1.943.932 3.09 1.026 1.531.125 2.79-.534 4.111-1.081 2.4-.994 3.091-2.016 3.235-4.396.044-.723-.184-1.072-1.005-1.258-1.468-.33-2.846-.096-4.424.392Zm20.14-33.144c.248 1.25.726 2.339 2.172 2.512 1.384.165 2.797.403 4.1-.378.885-.53 1.865-.959 2.612-1.642.68-.62 1.084-1.499.942-2.552-.129-.956-.899-1.003-1.524-1.263a5.271 5.271 0 0 0-1.245-.352c-1.65-.244-3.273.099-4.732.749-1.04.463-2.64.75-2.325 2.925Zm-9.632 20.868c-1.866-.117-3.73-.284-5.597-.336-1.781-.05-2.073.276-1.927 2.014.216 2.564 2.395 3.89 4.659 2.78 1.375-.673 2.276-2.333 3.35-3.584.07-.083-.199-.46-.485-.874ZM67.76 2.787l-1.927.267c.308.628.616 1.256.922 1.885.047.097.068.21.132.293 1.02 1.323 2.03 2.653 3.088 3.944.105.128.72.063.73.01.395-1.88 1.094-3.704 1.089-5.663-.002-.681-.22-1.12-.97-1.083-.964.046-1.926.114-3.064.347ZM48.496 34.002c.322-.204.635-.569.965-.586 1.25-.062 2.346-1.31 3.717-.487.09.054.464-.16.52-.316.056-.158-.059-.459-.198-.596-.935-.921-1.874-1.803-1.703-3.32.044-.391-.19-.841-.379-1.223-.325-.656-.903-.658-1.343-.022-.529.765-1.172 1.488-1.523 2.33-.536 1.287-.89 2.654-1.26 4.004-.074.267.128.61.203.918.346-.216.68-.45 1.001-.702ZM24.328 79.948c.404.288.777.747 1.217.824.797.14 1.898.385 2.4-.012.97-.771 1.688-1.909 2.365-2.987.457-.727.047-1.361-.85-1.305-1.437.09-2.887.25-4.285.58-.688.163-1.878-.363-1.997.729-.068.622.625 1.328 1.15 2.171ZM63.733 3.664c.25.059.499.133.753.166.082.01.178-.088.268-.137-.117-.068-.227-.169-.353-.196-.158-.034-.328-.008-.668.167ZM39.915 62.938l-.21-.14c.011.105.023.21.21.14Z" fill="#fff"/></svg>
